SVG_Azure_All/Automation Hybrid Worker Group.svg

<?xml version="1.0" encoding="UTF-8" standalone="no"?>
<!-- Generated by Microsoft Visio, SVG Export Automation Hybrid Worker Group.svg Page-1 -->

<svg
   xmlns:dc="http://purl.org/dc/elements/1.1/"
   xmlns:cc="http://creativecommons.org/ns#"
   xmlns:rdf="http://www.w3.org/1999/02/22-rdf-syntax-ns#"
   xmlns:svg="http://www.w3.org/2000/svg"
   xmlns="http://www.w3.org/2000/svg"
   xmlns:sodipodi="http://sodipodi.sourceforge.net/DTD/sodipodi-0.dtd"
   xmlns:inkscape="http://www.inkscape.org/namespaces/inkscape"
   width="0.7480073in"
   height="0.78737515in"
   viewBox="0 0 53.856623 56.691299"
   xml:space="preserve"
   class="st6"
   version="1.1"
   id="svg44"
   sodipodi:docname="Automation Hybrid Worker Group.svg"
   style="font-size:12px;overflow:visible;color-interpolation-filters:sRGB;fill:none;fill-rule:evenodd;stroke-linecap:square;stroke-miterlimit:3"
   inkscape:version="0.92.5 (2060ec1f9f, 2020-04-08)"><metadata
   id="metadata50"><rdf:RDF><cc:Work
       rdf:about=""><dc:format>image/svg+xml</dc:format><dc:type
         rdf:resource="http://purl.org/dc/dcmitype/StillImage" /></cc:Work></rdf:RDF></metadata><defs
   id="defs48" /><sodipodi:namedview
   pagecolor="#ffffff"
   bordercolor="#666666"
   borderopacity="1"
   objecttolerance="10"
   gridtolerance="10"
   guidetolerance="10"
   inkscape:pageopacity="0"
   inkscape:pageshadow="2"
   inkscape:window-width="640"
   inkscape:window-height="480"
   id="namedview46"
   showgrid="false"
   inkscape:zoom="1.7193066"
   inkscape:cx="35.905348"
   inkscape:cy="23.279613"
   inkscape:window-x="0"
   inkscape:window-y="0"
   inkscape:window-maximized="0"
   inkscape:current-layer="svg44" />
	<style
   type="text/css"
   id="style2">
	<![CDATA[
		.st1 {fill:#57a300;stroke:none;stroke-linecap:butt;stroke-width:12.24}
		.st2 {fill:#59b4d9;stroke:none;stroke-linecap:butt;stroke-width:12.24}
		.st3 {fill:#804998;stroke:none;stroke-linecap:butt;stroke-width:12.24}
		.st4 {fill:#68217a;stroke:none;stroke-linecap:butt;stroke-width:12.24}
		.st5 {fill:#0072c6;stroke:none;stroke-linecap:butt;stroke-width:12.24}
		.st6 {fill:none;fill-rule:evenodd;font-size:12px;overflow:visible;stroke-linecap:square;stroke-miterlimit:3}
	]]>
	</style>

	<g
   id="g42"
   transform="translate(-12.240131,-12.243)">
		<title
   id="title4">Page-1</title>
		<g
   id="group9031-1"
   transform="translate(12.24,-34.0157)">
			<title
   id="title6">Automation Hybrid Worker Group</title>
			<g
   id="group9032-2">
				<title
   id="title8">Sheet.9032</title>
				<g
   id="shape9033-3"
   transform="translate(21.5433,-39.5717)">
					<title
   id="title10">Sheet.9033</title>
					<ellipse
   cx="4.5836802"
   cy="98.4132"
   rx="4.5836802"
   ry="4.53543"
   class="st1"
   id="ellipse12"
   style="fill:#57a300;stroke:none;stroke-width:12.23999977;stroke-linecap:butt" />
				</g>
				<g
   id="shape9034-5"
   transform="translate(21.8871,-8.05039)">
					<title
   id="title15">Sheet.9034</title>
					<ellipse
   cx="4.5836802"
   cy="98.4132"
   rx="4.5836802"
   ry="4.53543"
   class="st1"
   id="ellipse17"
   style="fill:#57a300;stroke:none;stroke-width:12.23999977;stroke-linecap:butt" />
				</g>
				<g
   id="shape9035-7"
   transform="translate(0,-10.3181)">
					<title
   id="title20">Sheet.9035</title>
					<path
   d="M 14.9,102.95 H 12.72 C 5.73,102.95 0,97.28 0,90.36 v -11 C 0.11,72.79 5.73,67.12 12.61,66.78 h 3.43 c 1.15,0 2.07,0.91 2.07,2.04 0,1.13 -0.92,2.04 -2.07,2.04 h -3.32 c -4.58,0.23 -8.48,3.97 -8.48,8.39 v 11 c 0,4.65 3.78,8.39 8.48,8.39 h 2.18 c 1.14,0 2.06,0.91 2.06,2.04 0,1.36 -0.92,2.27 -2.06,2.27 z"
   class="st2"
   id="path22"
   inkscape:connector-curvature="0"
   style="fill:#59b4d9;stroke:none;stroke-width:12.23999977;stroke-linecap:butt" />
				</g>
				<g
   id="shape9036-9"
   transform="translate(34.6068,-10.3181)">
					<title
   id="title25">Sheet.9036</title>
					<path
   d="M 6.53,102.95 H 2.06 C 0.92,102.95 0,102.04 0,100.91 0,99.77 0.92,98.87 2.06,98.87 h 4.47 c 4.7,0 8.48,-3.74 8.48,-8.39 v -11 c 0,-4.65 -3.78,-8.39 -8.48,-8.39 H 3.21 c -1.15,0 -2.06,-0.91 -2.06,-2.04 0,-1.14 0.91,-2.04 2.06,-2.04 h 3.32 c 6.99,0 12.72,5.66 12.72,12.58 v 11 c 0,6.8 -5.73,12.36 -12.72,12.36 z"
   class="st3"
   id="path27"
   inkscape:connector-curvature="0"
   style="fill:#804998;stroke:none;stroke-width:12.23999977;stroke-linecap:butt" />
				</g>
				<g
   id="shape9037-11"
   transform="translate(16.1575,-31.5213)">
					<title
   id="title30">Sheet.9037</title>
					<path
   d="M 9.74,102.95 C 6.53,102.95 3.21,101.7 0.8,99.32 0,98.53 0,97.17 0.8,96.37 c 0.8,-0.79 2.18,-0.79 2.98,0 3.32,3.29 8.71,3.29 11.92,0 3.32,-3.29 3.32,-8.62 0,-11.79 -1.61,-1.59 -3.78,-2.49 -5.96,-2.49 -2.29,0 -4.35,0.9 -5.96,2.49 -0.8,0.79 -2.18,0.79 -2.98,0 -0.8,-0.79 -0.8,-2.15 0,-2.95 2.41,-2.49 5.62,-3.85 8.94,-3.85 3.44,0 6.53,1.36 8.94,3.63 4.93,4.87 4.93,12.92 0,17.8 -2.41,2.49 -5.62,3.74 -8.94,3.74 z"
   class="st4"
   id="path32"
   inkscape:connector-curvature="0"
   style="fill:#68217a;stroke:none;stroke-width:12.23999977;stroke-linecap:butt" />
				</g>
				<g
   id="shape9038-13"
   transform="translate(12.4905)">
					<title
   id="title35">Sheet.9038</title>
					<path
   d="m 13.87,102.95 c -3.44,0 -6.54,-1.36 -8.94,-3.63 C 0,94.44 0,86.39 4.93,81.52 c 2.4,-2.38 5.61,-3.63 8.94,-3.63 3.43,0 6.53,1.36 8.93,3.63 0.81,0.79 0.81,2.15 0,2.95 -0.8,0.79 -2.17,0.79 -2.98,0 -1.6,-1.59 -3.78,-2.5 -5.95,-2.5 -2.3,0 -4.36,0.91 -5.96,2.5 -3.33,3.28 -3.33,8.61 0,11.79 1.6,1.59 3.66,2.49 5.96,2.49 2.29,0 4.35,-0.9 5.95,-2.49 0.81,-0.79 2.18,-0.79 2.98,0 0.81,0.79 0.81,2.15 0,2.95 -2.29,2.38 -5.5,3.74 -8.93,3.74 z"
   class="st5"
   id="path37"
   inkscape:connector-curvature="0"
   style="fill:#0072c6;stroke:none;stroke-width:12.23999977;stroke-linecap:butt" />
				</g>
			</g>
		</g>
	</g>
</svg>

<?xml version="1.0" encoding="UTF-8" standalone="no"?>
<!DOCTYPE svg PUBLIC "-//W3C//DTD SVG 1.1//EN" "http://www.w3.org/Graphics/SVG/1.1/DTD/svg11.dtd">
<!-- Generated by Microsoft Visio, SVG Export Automation Hybrid Worker Group.svg Page-1 -->
<svg xmlns="http://www.w3.org/2000/svg" xmlns:xlink="http://www.w3.org/1999/xlink" xmlns:ev="http://www.w3.org/2001/xml-events"
		width="1.08803in" height="1.42984in" viewBox="0 0 78.3383 102.949" xml:space="preserve" color-interpolation-filters="sRGB"
		class="st6">
	<style type="text/css">
	<![CDATA[
		.st1 {fill:#57a300;stroke:none;stroke-linecap:butt;stroke-width:12.24}
		.st2 {fill:#59b4d9;stroke:none;stroke-linecap:butt;stroke-width:12.24}
		.st3 {fill:#804998;stroke:none;stroke-linecap:butt;stroke-width:12.24}
		.st4 {fill:#68217a;stroke:none;stroke-linecap:butt;stroke-width:12.24}
		.st5 {fill:#0072c6;stroke:none;stroke-linecap:butt;stroke-width:12.24}
		.st6 {fill:none;fill-rule:evenodd;font-size:12px;overflow:visible;stroke-linecap:square;stroke-miterlimit:3}
	]]>
	</style>

	<g>
		<title>Page-1</title>
		<g id="group8836-1" transform="translate(12.24,-34.0157)">
			<title>Automation Hybrid Worker Group</title>
			<g id="group8837-2">
				<title>Sheet.8837</title>
				<g id="shape8838-3" transform="translate(21.5433,-39.5717)">
					<title>Sheet.8838</title>
					<ellipse cx="4.58368" cy="98.4132" rx="4.58368" ry="4.53543" class="st1"/>
				</g>
				<g id="shape8839-5" transform="translate(21.8871,-8.05039)">
					<title>Sheet.8839</title>
					<ellipse cx="4.58368" cy="98.4132" rx="4.58368" ry="4.53543" class="st1"/>
				</g>
				<g id="shape8840-7" transform="translate(0,-10.3181)">
					<title>Sheet.8840</title>
					<path d="M14.9 102.95 L12.72 102.95 C5.73 102.95 0 97.28 0 90.36 L0 79.36 C0.11 72.79 5.73 67.12 12.61 66.78
								 L16.04 66.78 C17.19 66.78 18.11 67.69 18.11 68.82 C18.11 69.95 17.19 70.86 16.04 70.86 L12.72 70.86
								 C8.14 71.09 4.24 74.83 4.24 79.25 L4.24 90.25 C4.24 94.9 8.02 98.64 12.72 98.64 L14.9 98.64 C16.04
								 98.64 16.96 99.55 16.96 100.68 C16.96 102.04 16.04 102.95 14.9 102.95 Z" class="st2"/>
				</g>
				<g id="shape8841-9" transform="translate(34.6068,-10.3181)">
					<title>Sheet.8841</title>
					<path d="M6.53 102.95 L2.06 102.95 C0.92 102.95 0 102.04 0 100.91 C0 99.77 0.92 98.87 2.06 98.87 L6.53 98.87
								 C11.23 98.87 15.01 95.13 15.01 90.48 L15.01 79.48 C15.01 74.83 11.23 71.09 6.53 71.09 L3.21 71.09
								 C2.06 71.09 1.15 70.18 1.15 69.05 C1.15 67.91 2.06 67.01 3.21 67.01 L6.53 67.01 C13.52 67.01 19.25
								 72.67 19.25 79.59 L19.25 90.59 C19.25 97.39 13.52 102.95 6.53 102.95 Z" class="st3"/>
				</g>
				<g id="shape8842-11" transform="translate(16.1575,-31.5213)">
					<title>Sheet.8842</title>
					<path d="M9.74 102.95 C6.53 102.95 3.21 101.7 0.8 99.32 C0 98.53 0 97.17 0.8 96.37 C1.6 95.58 2.98 95.58 3.78
								 96.37 C7.1 99.66 12.49 99.66 15.7 96.37 C19.02 93.08 19.02 87.75 15.7 84.58 C14.09 82.99 11.92 82.09
								 9.74 82.09 C7.45 82.09 5.39 82.99 3.78 84.58 C2.98 85.37 1.6 85.37 0.8 84.58 C0 83.79 0 82.43 0.8
								 81.63 C3.21 79.14 6.42 77.78 9.74 77.78 C13.18 77.78 16.27 79.14 18.68 81.41 C23.61 86.28 23.61
								 94.33 18.68 99.21 C16.27 101.7 13.06 102.95 9.74 102.95 Z" class="st4"/>
				</g>
				<g id="shape8843-13" transform="translate(12.4905,0)">
					<title>Sheet.8843</title>
					<path d="M13.87 102.95 C10.43 102.95 7.33 101.59 4.93 99.32 C0 94.44 0 86.39 4.93 81.52 C7.33 79.14 10.54 77.89
								 13.87 77.89 C17.3 77.89 20.4 79.25 22.8 81.52 C23.61 82.31 23.61 83.67 22.8 84.47 C22 85.26 20.63
								 85.26 19.82 84.47 C18.22 82.88 16.04 81.97 13.87 81.97 C11.57 81.97 9.51 82.88 7.91 84.47 C4.58
								 87.75 4.58 93.08 7.91 96.26 C9.51 97.85 11.57 98.75 13.87 98.75 C16.16 98.75 18.22 97.85 19.82 96.26
								 C20.63 95.47 22 95.47 22.8 96.26 C23.61 97.05 23.61 98.41 22.8 99.21 C20.51 101.59 17.3 102.95 13.87
								 102.95 Z" class="st5"/>
				</g>
			</g>
		</g>
	</g>
</svg>
